img/cart.svg

<svg version="1.1" xmlns="http://www.w3.org/2000/svg" xmlns:xlink="http://www.w3.org/1999/xlink" width="16" height="16" viewBox="0,0,256,256"><g fill="#a9b63f" fill-rule="nonzero" stroke="none" stroke-width="1" stroke-linecap="butt" stroke-linejoin="miter" stroke-miterlimit="10" stroke-dasharray="" stroke-dashoffset="0" font-family="none" font-weight="none" font-size="none" text-anchor="none" style="mix-blend-mode: normal"><g transform="translate(8.00367,-8) scale(16,16)"><path d="M0,1.5c0,-0.27614 0.22386,-0.5 0.5,-0.5h1.5c0.22949,0.00006 0.42946,0.15634 0.485,0.379l0.405,1.621h11.61c0.14864,0.00014 0.2895,0.0664 0.38439,0.1808c0.09489,0.11441 0.13396,0.2651 0.10661,0.4112l-1.5,8c-0.04425,0.23638 -0.25051,0.40778 -0.491,0.408h-9c-0.24049,-0.00022 -0.44675,-0.17162 -0.491,-0.408l-1.499,-7.985l-0.4,-1.607h-1.11c-0.27614,0 -0.5,-0.22386 -0.5,-0.5zM3.102,4l1.313,7h8.17l1.313,-7zM5,12c-1.10457,0 -2,0.89543 -2,2c0,1.10457 0.89543,2 2,2c1.10457,0 2,-0.89543 2,-2c0,-1.10457 -0.89543,-2 -2,-2zM12,12c-1.10457,0 -2,0.89543 -2,2c0,1.10457 0.89543,2 2,2c1.10457,0 2,-0.89543 2,-2c0,-1.10457 -0.89543,-2 -2,-2zM5,13c0.55228,0 1,0.44772 1,1c0,0.55228 -0.44772,1 -1,1c-0.55228,0 -1,-0.44772 -1,-1c0,-0.55228 0.44772,-1 1,-1zM12,13c0.55228,0 1,0.44772 1,1c0,0.55228 -0.44772,1 -1,1c-0.55228,0 -1,-0.44772 -1,-1c0,-0.55228 0.44772,-1 1,-1z"></path></g></g></svg>

<svg xmlns="http://www.w3.org/2000/svg" width="16" height="16" fill="currentColor" class="bi bi-cart" viewBox="0 0 16 16">
  <path d="M0 1.5A.5.5 0 0 1 .5 1H2a.5.5 0 0 1 .485.379L2.89 3H14.5a.5.5 0 0 1 .491.592l-1.5 8A.5.5 0 0 1 13 12H4a.5.5 0 0 1-.491-.408L2.01 3.607 1.61 2H.5a.5.5 0 0 1-.5-.5zM3.102 4l1.313 7h8.17l1.313-7H3.102zM5 12a2 2 0 1 0 0 4 2 2 0 0 0 0-4zm7 0a2 2 0 1 0 0 4 2 2 0 0 0 0-4zm-7 1a1 1 0 1 1 0 2 1 1 0 0 1 0-2zm7 0a1 1 0 1 1 0 2 1 1 0 0 1 0-2z"/>
</svg>
